X: 29163
T: New Algorithm March, The
R: waltz
M: 3/4
K: Eminor
EE|:"Em" E2 G2 A2|B2 cBAG|"C" C2 G2 GA|"Em" G4 E2|
"C" C2 AGFE|"Em" G2 EF (3GFE|"D" F2 GFEF|"Bm" B,2 BAGF|
"Em" E2 G2 A2|B2 cBAG|"C" C2 G2 GA|"Em" G4 E2|
"C" C2 AGFE|"Em" G2 EF (3GFE|"D" F2 GFEF|"Bm" B,2 B,B,B,2|
"C" C2 CD (3EFG|"D" F2DEFD|"Em" E4 GA|"Bm" BAG BAG|
"C" C2 CD (3EFG|"D" F2DEFD|"Em" BcB ABG|"D" F6|
"C" C2CD (3EFG|"D" F2DEFD|"Em" E4 GA|"Bm" BAG BAG|
"C" C2CD (3EFG|"D" F2 DEFD|"Em" BcB ABe|"D" f6|
"G" ggg ggg|"D" fff fff|"Em" eee eee|"Bm" dedc B2|
"Em" EF (3GFE ec|"Bm" B3 AGB|"C" CGF EFG|"D" F4 d2|
"G" gdB gdB|"D" fdB fdB|"C" ecA ecA|"Bm" dedc B2|
"Em" EF (3GFE ec|"Bm" B3 AGB|"C" CGF EFG|"D" F6|
"Em" E2 EFGB|"C" E2 EFGB|"D" AGF AGF|"C" GFE GFD|
"Em" E2 EFGB|"C" E2 EFGB|"D" BcB ABA|"C" GAG FGD|
"Em" E2 EFGB|"C" E2 EFGB|"D" AGF AGF|"C" GFE GFD|
"Em" E2 EFGB|"C" E2 EFGB|"D" BcB ABA|"C" GAG FGD|
"G" G,2 G,A,B,D|"C" C2CD (3EFG|"G" G,2 D2 G2|"D" FED CB,A,|
"G" G,2 GA BG|"Am" AGFA GF|"Em" E2 EF GA|BcB AGF|
"G" G,2G,A,B,D|"C" C2CD (3EFG|"G" G,2 D2 G2|"D" FED CB,A,|
"G" G,2 GA BG|"Am" AGF AGF|"Em" E2 EF GA|BcB AGF:|

